X: 1608
T: Rast Örnek-öz
C: Rûhî Ayangil
O: Turkey
F: http://compmusic.upf.edu/node/140
N: rast--ornek-oz--musemmen--1--ruhi_ayangil
N: makam= rast
N: form= ornek-oz
N: usul= musemmen = 8/8
M: 8/8
L: 1/16
K: C _1/4B ^f  
Q: 1/4=120
%%MIDI tuningsystem comma53
E2F2 G2A2 B2c2 B2A2  | G4 d2c4d4e2  | \
w:   |   | 
g2=f2 e2d2 c2B2 A2c2  | 
w:   | 
B4 A2G8-G2  | |


